X: 26996
T: Miss Falconer
R: reel
M: 4/4
K: Adorian
|:A>BA>B c2 cd|BGdG eGdG|AGAB c2 cd|BGdB c>AA>B:|
|:A>aa>g a>e c<A|G>gg>f g>d B<G|A>a a>g a>ed>f|e>cd>B c>AA>B|
A>aa>g a>e c<A|G>gg>f g>d B<G|AcBd cedf|e>cd>B c<A A2||

